!!!COM: Richard Strauss
!!!CNT: Deutscher
!!!TXO: Deutsche 
!!!OTL: Wasserrose
!!!OPS: Opus 22
!!!ONM: No. 4
!!!LYR: Felix Dahn
!!!ENC: Brian Bice
!!!YOR: Lieder, Complete Edition, vol. 1
!!!ODT: 1888/
!!NB: Vocal melody and text only encoded.
**kern	**silbe
*clefG2	*
*k[f#c#g#]	*
*M6/8	*
=2	=2
{[4.a	{Kennst
8a]	|
8g#	du
8f#	die
=3	=3
4b#	Blu-
8cc#	-me,
8r	.
8r	.
8cc#	die
=4	=4
4ff#	ma2r-
8cc#	-chen-
4b	-haf-
8a}	-te,}
=5	=5
{8cc#	{sa-
8f#	-gen-
8g#	-ge-
(8a	-fei-
8b)	-er-
8cc#	-te
=6	=6
4cc#	Was-
8b	-ser-
4dd	-ro-
8ee}	-se?}
=7	=7
8r	.
8r	.
{8ee#	{Sie
8ff#	wiegt
8cc#	auf
8een	a2-
=8	=8
8.dd#	-the-
16dd#	-risch-
8b	-em,
4aa	schlan-
8ff#	-ken
=9	=9
8ee	Schaf-
16dd#}	-te}
16r	.
{8dd#	{das
8cc#	durch-
8dd#	-sicht'-
8b	-ge
=10	=10
[4.a	Haupt,
4a]	|
8dd	das
=11	=11
4cc#	far-
8b	-ben-
(4g#	-lo-
8a)}	-se,}
=12	=12
8r	.
8r	.
{8g#	{sie
[4.cc#	blu2ht
=13	=13
4cc#]	|
8g#	auf
8.c#	schil-
16c#	-fi-
8d#	-gem
=14	=14
[4.e#	Teich
4e#]	|
8f#	im
=15	=15
8f##	Hai-
16g#}	-ne,}
16r	.
{8g#	{ge-
8g#	-hu2-
8a	-tet
8b	vom
=16	=16
4.cc#	Schwan,
4cc#	der
8cc#	um-
=17	=17
[4.ff#	-krei-
8ff#]	|
8cc#	-set
8f#	sie
=18	=18
4a#	ein-
8b}	-sam,}
8r	.
{8cc#	{sie
8cc##	er-
=19	=19
[4dd#	-schliesst
16dd#]	|
16ee#	sich
4dd#	nur
8dd#	dem
=20	=20
4gg#	Mon-
8dd#	-den-
8cc#	-schei-
8b#}	-ne,}
{8b#	{mit
=21	=21
8a#	dem
8b#	ihr
8g#	der
[4.dd#	sil-
=22	=22
8dd#]	|
8ee-	-ber-
8ee-	-ne
8ffn	Schim-
8dd-	-mer
8ee-	ge-
=23	=23
4.ccn	-mein-
4dd-}	-sam:}
8r	.
=24	=24
4r	.
8r	.
4r	.
{8cc#	{So
=25	=25
4.cc#	blu2ht
4cc#	sie,
8cc#	die
=26	=26
8cc#	zaub'-
8dd	-ris-
8dd#	-che
8ff#	Schwes-
8ee	-ter
8b	der
=27	=27
4.b	Ster-
8cc#}	-ne,}
8r	.
{8cc#	{um-
=28	=28
[4.cc#	-schwa2rmt
8cc#]	|
8cc#	von
8cc#	der
=29	=29
8ee	tra2u-
8dd#	-me-
8cc#	-risch
8ff#	dunk-
8ee	-len
8dd#	Pha-
=30	=30
4.dd#	-la2-
8ee	-ne,
8dd#}	die}
{8ee	{am
=31	=31
8ee#	Rau-
8dd#	-de
8cc#	des
4ee#	Teichs
8ee#	sich
=32	=32
4.ff#	seh-
4ff#	-net
8ffn	von
=33	=33
(4.ee	fer-
16dd)}	-ne,}
16r	.
{8cc#	{und
8b	sie
=34	=34
4.ff#	nim-
4ff#	-mer
8ffn	er-
=35	=35
8ee	-reicht
4ff#	wie
8ee	sehr
8dd#	sie
8ddn	sich
=36	=36
4.dd	seh-
4cc#}	-ne.}
8r	.
=38	=38
{4a	{Was-
8a	-ser
4g#	ro-
8f#	-se,
=39	=39
8r	.
8r	.
8b#	so
8cc#	nenn'
8dd	ich
8cc#	die
=40	=40
4ff#	schlan-
16cc#}	-ke,}
16r	.
{8b	{nacht-
8a	-lock'-
8b	-ge
=41	=41
8cc#	Maid,
8f#	a-
8g#	-la-
8a	-ba-
8b	-stern
8cc#	von
=42	=42
4cc#	Wan-
8dd}	-gen,}
8r	.
{8dd	{in
8ee	dem
=43	=43
4.ee#	Au-
4ee#	-ge
8ff#	der
=44	=44
8.aa	ah-
16ff#	-nen-
8ee	-de
8dd#	tie-
8cc#	-fe
8b	Ge-
=45	=45
4.ddn	-dan-
4a}	-ke,}
8r	.
=46	=46
8r	.
8r	.
{8a	{als
8b	sei
8cc#	sie
8dd	ein
=47	=47
2.b	Geist
=48	=48
8r	.
8a	und
8a	auf
8b	Er-
8cc#	-den
8dd	ge-
=49	=49
([4c#	-fan-
16c#]	|
16d)	|
4c#}	-gen.}
8r	.
=50	=50
4r	.
8r	.
8r	.
{8c#	{Wenn
8c#	sie
=51	=51
*k[f#c#g#d#a#e#]	*
*M12/8	*
8a#	spricht,
8a#	ist's
8a#	wie
[4.cc#	sil-
8cc#]	|
8b	-ber-
8a#	-nes
4g#	Wo-
8a#	-gen-
=52	=52
([4f#	-rau-
16f#]	|
16g#)	|
8f#}	-schen,}
8r	.
8r	.
8r	.
{8f#	{wenn
8g#	sie
(4.a#	schwiegt,
=53	=53
8b-)	|
8fn	ist's
8dn	die
8fn	ah-
8b-	-nen-
8ddn	-de
4.ffn	Stil-
4ccn	-le
8ddn	der
=54	=54
([4b-	Mond-
16b-]	|
16ccn)	|
4b-}	-nacht;}
8r	.
4r	.
{8b-	{sie
8b-	scheint
8ccn	mit
8ddn	den
=55	=55
4ee-	Ster-
8ee-	-nen
8ee-	Bli-
8ddn	-cke
8ccn	zu
4ee-	tau-
8b}	-schen,}
8r	.
{8ee-	{de-
8ee-	-ren
=56	=56
8ee-	Spra-
8ccn	-che
8dd-	die
8ee-	glei-
8ffn	-che
8gg-	Na-
4.gg-	-tur
4b-	sie
8ccn	ge-
=57	=57
4.ee-	-wohnt
4dd-}	macht;}
8r	.
4r	.
{8cc#	{du
8cc#	kannst
8b#	nie
8bn	er-
=58	=58
4.a#	-mu2-
4cc#}	-den}
8r	.
4r	.
{8ff#	{ins
8ee#	Aug'
8dd#	ihr
8cc#	zu
=59	=59
8cc#	schau'n,
8a#	das
8b	die
4cc#	seid-
8ff#}	-ne,}
{4aa#	{lan-
8ff#	-ge
8ee#	Wim-
8dd#	-per
8cc#	um-
=60	=60
([8cc#	-sa2umt
16cc#]	|
16dd#)	|
8cc#	hat,
8r	.
8cc#	und
8cc#	du
4.een}	glaubst,}
8r	.
{8a#	{wie
8g#	be-
=61	=61
(4f#	-sau-
8dd#)	-bert
4r	.
8dd#	von
8ddn	se-
8cc#	-li-
8b	-gem
4dd#	Grau'n,
8dd#	was
=62	=62
[2.ff#	je
8ff#]}	|}
{8cc#	{die
8b	Ro-
8dd#	-man-
8cc#	-tik
8a#	von
=63	=63
(4.g#	El-
[4.gg#	|
8gg#]	|
8b#	|
8dd#	|
8cc#)	|
8bn	-fen
8g#	ge-
=64	=64
([4f#	-tra2umt
16f#]	|
16g#)	|
4f#}	hat.}
8r	.
4r	.
8r	.
4r	.
8r	.
*-	*-
